svgs/sharp-duotone-light/shirt-running.svg

<svg xmlns="http://www.w3.org/2000/svg" viewBox="0 0 384 512"><!--! Font Awesome Pro 7.1.0 by @fontawesome - https://fontawesome.com License - https://fontawesome.com/license (Commercial License) Copyright 2025 Fonticons, Inc. --><path opacity=".4" fill="currentColor" d="M32 275.4L91 142.6c23.4 30 60 49.4 101 49.4s77.6-19.3 101-49.4l21.9 49.3-4.3 3.1-278.6 201.2 0-120.9zm0 160.3l9.4-6.8 286.8-207.1 23.8 53.6 0 204.6-320 0 0-44.3z"/><path fill="currentColor" d="M96 0l-32 0 0 124.6-62.6 140.9-1.4 3.1 0 243.4 384 0 0-243.4-1.4-3.1-62.6-140.9 0-124.6-32 0 0 64c0 53-43 96-96 96S96 117 96 64L96 0zM32 275.4L91 142.6c23.4 30 60 49.4 101 49.4s77.6-19.3 101-49.4l21.9 49.3-4.3 3.1-278.6 201.2 0-120.9zm0 160.3l9.4-6.8 286.8-207.1 23.8 53.6 0 204.6-320 0 0-44.3z"/></svg>

<svg xmlns="http://www.w3.org/2000/svg" viewBox="0 0 384 512"><!--! Font Awesome Pro 6.7.2 by @fontawesome - https://fontawesome.com License - https://fontawesome.com/license (Commercial License) Copyright 2024 Fonticons, Inc. --><defs><style>.fa-secondary{opacity:.4}</style></defs><path class="fa-secondary" d="M32 275.4L91 142.6c23.4 30 60 49.4 101 49.4s77.6-19.3 101-49.4l21.9 49.3-4.3 3.1L32 396.3l0-120.9zm0 160.3l9.4-6.8L328.2 221.8 352 275.4 352 480 32 480l0-44.3z"/><path class="fa-primary" d="M96 0L80 0 64 0l0 16 0 48 0 60.6L1.4 265.5 0 268.6 0 272 0 496l0 16 16 0 352 0 16 0 0-16 0-224 0-3.4-1.4-3.1L320 124.6 320 64l0-48 0-16L304 0 288 0l0 16 0 48c0 53-43 96-96 96s-96-43-96-96l0-48L96 0zM32 275.4L91 142.6c23.4 30 60 49.4 101 49.4s77.6-19.3 101-49.4l21.9 49.3-4.3 3.1L32 396.3l0-120.9zm0 160.3l9.4-6.8L328.2 221.8 352 275.4 352 480 32 480l0-44.3z"/></svg>
